public/assets/imgs/page/homepage8/calendar.svg

<svg width="16" height="16" viewBox="0 0 16 16" fill="none" xmlns="http://www.w3.org/2000/svg">
<path d="M12.9109 1.23215H12.3141V0.628261C12.3141 0.283228 12.0344 0.00354004 11.6894 0.00354004C11.3444 0.00354004 11.0647 0.283228 11.0647 0.628261V1.23215H4.9353V0.628261C4.9353 0.283228 4.65561 0.00354004 4.31058 0.00354004C3.96555 0.00354004 3.68586 0.283228 3.68586 0.628261V1.23215H3.08909C1.38576 1.23215 0 2.61791 0 4.32121V12.9073C0 14.6107 1.38576 15.9964 3.08909 15.9964H12.9109C14.6142 15.9964 16 14.6107 16 12.9073V4.32121C16 2.61791 14.6142 1.23215 12.9109 1.23215ZM3.08909 2.48159H3.68586V3.6998C3.68586 4.04483 3.96555 4.32452 4.31058 4.32452C4.65561 4.32452 4.9353 4.04483 4.9353 3.6998V2.48159H11.0647V3.6998C11.0647 4.04483 11.3444 4.32452 11.6894 4.32452C12.0345 4.32452 12.3141 4.04483 12.3141 3.6998V2.48159H12.9109C13.9253 2.48159 14.7506 3.30685 14.7506 4.32121V4.918H1.24944V4.32121C1.24944 3.30685 2.0747 2.48159 3.08909 2.48159ZM12.9109 14.747H3.08909C2.0747 14.747 1.24944 13.9217 1.24944 12.9073V6.16745H14.7506V12.9073C14.7506 13.9217 13.9253 14.747 12.9109 14.747ZM5.54962 8.6247C5.54962 8.96973 5.26993 9.24942 4.9249 9.24942H3.69629C3.35126 9.24942 3.07157 8.96973 3.07157 8.6247C3.07157 8.27966 3.35126 7.99997 3.69629 7.99997H4.9249C5.2699 7.99997 5.54962 8.27966 5.54962 8.6247ZM12.9285 8.6247C12.9285 8.96973 12.6488 9.24942 12.3037 9.24942H11.0751C10.7301 9.24942 10.4504 8.96973 10.4504 8.6247C10.4504 8.27966 10.7301 7.99997 11.0751 7.99997H12.3037C12.6487 7.99997 12.9285 8.27966 12.9285 8.6247ZM9.23548 8.6247C9.23548 8.96973 8.95579 9.24942 8.61076 9.24942H7.38215C7.03712 9.24942 6.75743 8.96973 6.75743 8.6247C6.75743 8.27966 7.03712 7.99997 7.38215 7.99997H8.61076C8.95576 7.99997 9.23548 8.27966 9.23548 8.6247ZM5.54962 12.3106C5.54962 12.6556 5.26993 12.9353 4.9249 12.9353H3.69629C3.35126 12.9353 3.07157 12.6556 3.07157 12.3106C3.07157 11.9655 3.35126 11.6858 3.69629 11.6858H4.9249C5.2699 11.6858 5.54962 11.9655 5.54962 12.3106ZM12.9285 12.3106C12.9285 12.6556 12.6488 12.9353 12.3037 12.9353H11.0751C10.7301 12.9353 10.4504 12.6556 10.4504 12.3106C10.4504 11.9655 10.7301 11.6858 11.0751 11.6858H12.3037C12.6487 11.6858 12.9285 11.9655 12.9285 12.3106ZM9.23548 12.3106C9.23548 12.6556 8.95579 12.9353 8.61076 12.9353H7.38215C7.03712 12.9353 6.75743 12.6556 6.75743 12.3106C6.75743 11.9655 7.03712 11.6858 7.38215 11.6858H8.61076C8.95576 11.6858 9.23548 11.9655 9.23548 12.3106Z" fill="#D0D5DD"/>
</svg>

<svg xmlns="http://www.w3.org/2000/svg" width="16" height="16" fill="none"><path fill="#D0D5DD" d="M12.91 1.232h-.596V.628a.625.625 0 1 0-1.25 0v.604H4.936V.628a.625.625 0 1 0-1.25 0v.604H3.09A3.093 3.093 0 0 0 0 4.322v8.585a3.093 3.093 0 0 0 3.09 3.09h9.82a3.093 3.093 0 0 0 3.09-3.09V4.321a3.093 3.093 0 0 0-3.09-3.089Zm-9.82 1.25h.596V3.7a.625.625 0 1 0 1.25 0V2.482h6.129V3.7a.625.625 0 1 0 1.25 0V2.482h.596c1.014 0 1.84.825 1.84 1.84v.596H1.249v-.597c0-1.014.826-1.84 1.84-1.84Zm9.82 12.265H3.09a1.842 1.842 0 0 1-1.84-1.84v-6.74h13.5v6.74c0 1.015-.825 1.84-1.84 1.84ZM5.55 8.625c0 .345-.28.624-.625.624H3.696a.625.625 0 1 1 0-1.249h1.229c.345 0 .625.28.625.625Zm7.378 0c0 .345-.28.624-.624.624h-1.229a.625.625 0 0 1 0-1.249h1.229c.345 0 .624.28.624.625Zm-3.693 0c0 .345-.28.624-.624.624H7.382a.625.625 0 1 1 0-1.249h1.229c.345 0 .624.28.624.625ZM5.55 12.31c0 .345-.28.624-.625.624H3.696a.625.625 0 1 1 0-1.25h1.229c.345 0 .625.28.625.626Zm7.378 0c0 .345-.28.624-.624.624h-1.229a.625.625 0 0 1 0-1.25h1.229c.345 0 .624.28.624.626Zm-3.693 0c0 .345-.28.624-.624.624H7.382a.625.625 0 1 1 0-1.25h1.229c.345 0 .624.28.624.626Z"/></svg>
